X:1
T:Title
%%score ( 1 2 ) 3
L:1/8
Q:1/4=68
M:6/8
K:Db
V:1 treble nm="Strings 1, Treble"
V:2 treble 
V:3 bass nm="Strings 1, Bass"
V:1
 z3 z2 [FA] | [FA][DF][EG] [FA][GB][Ac] | [Fd] [FA]2- [FA]2 [FA] | [GB][GB][GB] [Bd][Ac][GB] | %4
w: 1.~Come,~|prod i gal~ child,~ to~ your~|Fa ther,~ * Why~|feed~ on~ the~ moun tains~ so~|
 [FA]3- [FA]2 [FA] | [Fd][Fd][DF] [DF][FA][FA] | [Ac] [GB]2- [GB]2 [GB] | %7
w: bare?~ * I'm~|wait ing,~ why~ stay~ an y~|long er?~ * There's~|
 [FA][FA][Fd] [Gc][Gd][Ge] | [Fd]3- [Fd]2 [GA] | A2- [EA-] [DA]2 [GA] | A2- [EA-] [DA]2 [FA] | %11
w: bread~ * e nough~ and~ to~|spare.~ * *|||
 [GB][GB][GB] Bc[=Gd] | [Ac]3- [Ac]2 [FA] | d6 | d6 | [GB][Gd][Gd] [Gc]2 [Ge][Q:1/4=12] | %16
w: |||||
[Q:1/4=68] [Fd]6 |] %17
w: |
V:2
 x6 | x6 | x6 | x6 | x6 | x6 | x6 | x6 | x6 | .F3 z3 | .F3 z3 | z3 .=G3 | x6 | F2 G F2 [FA] | %14
 F2 G F2 [FA] | x6 | x6 |] %17
V:3
 z3 z2 [D,D] | [D,D][D,A,][D,A,] [D,A,][D,A,][D,A,] | [D,A,] [D,D]2- [D,D]2 [D,D] | %3
 [G,D][G,D][G,D] [G,D][G,D][G,D] | [D,D]3- [D,D]2 [D,D] | [D,A,][D,A,][D,A,] [D,A,][D,D][D,D] | %6
 [G,D] [G,D]2- [G,D]2 [G,D] | [A,D][A,D]A, [A,,A,][A,,A,][A,,A,] | [D,A,]6 | z2 [A,,A,] .[D,F,]3 | %10
 z2 [A,,A,] [D,F,]2 [D,D] | [G,D][G,D][G,D] [E,E]2 [E,E] | [A,E]6 | z2 [D,B,] .[D,A,]3 | %14
 z2 [D,B,] [D,A,]2 [D,D] | [G,D][G,B,][G,B,] A,2 [A,,A,] | [D,A,]6 |] %17

